static/assets/img/icons/theme/devices/camera.svg

<svg height="24" viewBox="0 0 24 24" width="24" xmlns="http://www.w3.org/2000/svg"><g fill="none" fill-rule="evenodd"><path d="m0 0h24v24h-24z" opacity="0"/><g fill="#000"><path d="m5 7h14c1.1045695 0 2 .8954305 2 2v8c0 1.1045695-.8954305 2-2 2h-14c-1.1045695 0-2-.8954305-2-2v-8c0-1.1045695.8954305-2 2-2zm7 10c2.209139 0 4-1.790861 4-4s-1.790861-4-4-4-4 1.790861-4 4 1.790861 4 4 4z"/><rect height="2" opacity=".3" rx="1" width="6" x="9" y="4"/><circle cx="12" cy="13" opacity=".3" r="2"/></g></g></svg>

<svg width="24px" height="24px" viewBox="0 0 24 24" version="1.1" xmlns="http://www.w3.org/2000/svg" xmlns:xlink="http://www.w3.org/1999/xlink">
    <title>Icon For Camera</title>
    <g stroke="none" stroke-width="1" fill="none" fill-rule="evenodd">
        <rect opacity="0" x="0" y="0" width="24" height="24"></rect>
        <path d="M5,7 L19,7 C20.1045695,7 21,7.8954305 21,9 L21,17 C21,18.1045695 20.1045695,19 19,19 L5,19 C3.8954305,19 3,18.1045695 3,17 L3,9 C3,7.8954305 3.8954305,7 5,7 Z M12,17 C14.209139,17 16,15.209139 16,13 C16,10.790861 14.209139,9 12,9 C9.790861,9 8,10.790861 8,13 C8,15.209139 9.790861,17 12,17 Z" fill="#000000"></path>
        <rect fill="#000000" opacity="0.3" x="9" y="4" width="6" height="2" rx="1"></rect>
        <circle fill="#000000" opacity="0.3" cx="12" cy="13" r="2"></circle>
    </g>
</svg>
